X:894
T:Saint Andrews Assembly
C:Beethoven: Bundeslied
L:1/4
M:2/2
R:Reel
S:Colin Hume's website,  colinhume.com  - chords can also be printed below the stave.
Q:1/2=112
K:Bb
P:A
|: F | "Bb"BF dc | "/"BB Bc | "Bb"dc de | "F"cc cc |\
"Bb"dd de | "F"ff fe | "Bb"dd "F7"cc | "Bb"BB B :|
P:B
|: c | "F"cF/A/ cd | "/"cA Fc | "/"cF/A/ cd | "/"c3F |\
"Bb"BF Bd | "Dm"f2 "Gm"dd/e/ | "F"fe dc |1 "Bb"B3 :|2 "Bb"BB Bd/e/ ||
P:C
"Bb"fe dc | "Gm"Bg gg/a/ | "Eb"ba gf | "Cm"gf ed |\
"C"cB AG | "F"Ff fg/a/ | "Bb"bc' bc' | bf d |]

